src/static/icon.svg

<svg viewBox="0 0 192 192" xmlns="http://www.w3.org/2000/svg" xmlns:xlink="http://www.w3.org/1999/xlink"><linearGradient id="a" x1="50%" x2="50%" y1="0%" y2="100%"><stop offset="0" stop-color="#00bfff"/><stop offset="1" stop-color="#006afe"/></linearGradient><path d="m60.891974 39.1799869c25.5314471-25.5441145 72.65598-43.32984464 93.05119-38.33882649.624477.14906159 1.106372.64633849 1.236179 1.27563731 4.909894 21.42791868-12.758759 67.54255628-38.370296 93.04833188-4.529751 4.5599608-9.447791 8.7162674-14.698342 12.4217794.675546 7.842033.076609 15.684066-2.8484343 22.400331-8.2841398 18.949836-30.0652638 24.467142-39.4010262 25.965842-1.0375659.175234-2.0972348-.146106-2.8631697-.868242-.7659349-.722137-1.1496905-1.761684-1.0368877-2.8088l3.335942-30.392234c-2.2794176-.022686-4.5562173-.161116-6.8216182-.414756-1.5815463-.154855-3.0594576-.857499-4.178633-1.986648l-11.7732982-11.756079c-1.1295853-1.119154-1.8318575-2.598961-1.9848506-4.182417-.2543647-2.280198-.3926704-4.5718712-.4143811-6.8661354l-30.40303662 3.3563904c-1.04653901.114398-2.08608035-.269241-2.80792612-1.0362547-.72184576-.7670137-1.04237524-1.8285493-.86578865-2.8673353 1.5356476-9.3616444 7.04796085-31.1241564 25.98065009-39.4645939 6.710188-2.9276922 14.5834289-3.5097453 22.4566697-2.8126757 3.7019181-5.2426009 7.8533123-10.1522835 12.4070576-14.6733145zm-34.4990749 66.8341541c.6560584-.089441 1.2955944.251631 1.5869074.846317.2913131.594685.1688407 1.309145-.3038959 1.772819-1.05453 1.054686-2.7488082 5.544131-3.3217695 8.74686-1.5009478 8.448032 5.8772473 15.669113 14.2326402 14.245288 3.7189759-.643359 6.8087489-1.395701 8.7350237-3.325776 1.0123488-1.058201 2.8015348-.182812 2.6714761 1.286717-.5621814 4.679707-2.6832187 9.033862-6.0213665 12.360915-8.2640003 8.272252-38.9719146 9.052719-38.9719146 9.052719s.78035222-30.694868 9.0443525-38.967119c3.3292749-3.328283 7.6761344-5.446963 12.3485466-6.01874zm76.6788919-69.8393072c-6.761394 0-12.8568118 4.0772397-15.4432616 10.3300351s-1.1544171 13.4493848 3.6281771 18.2331739c3.132001 3.1393229 7.3825964 4.9033536 11.8150845 4.9033536 4.432488 0 8.683084-1.7640307 11.815085-4.9033536 4.782594-4.7837891 6.214626-11.9803785 3.628177-18.2331739-2.58645-6.2527954-8.681868-10.3300351-15.443262-10.3300351z" fill="url(#a)" transform="translate(18 18)"/></svg>

<?xml version="1.0" encoding="UTF-8"?>
<svg width="156px" height="156px" viewBox="0 0 156 156" version="1.1" xmlns="http://www.w3.org/2000/svg" xmlns:xlink="http://www.w3.org/1999/xlink">
    <title>icon</title>
    <defs>
        <linearGradient x1="67.2801484%" y1="153.044872%" x2="32.777444%" y2="-46.1964142%" id="linearGradient-1">
            <stop stop-color="#3CC7D4" offset="0%"></stop>
            <stop stop-color="#163CAD" offset="81.8510124%"></stop>
            <stop stop-color="#0D19A3" offset="100%"></stop>
            <stop stop-color="#0D19A3" offset="100%"></stop>
            <stop stop-color="#0D19A3" offset="100%"></stop>
        </linearGradient>
    </defs>
    <g id="Page-1" stroke="none" stroke-width="1" fill="none" fill-rule="evenodd">
        <g id="icon" fill="url(#linearGradient-1)" fill-rule="nonzero">
            <path d="M60.891974,39.1799869 C86.4234211,13.6358724 133.547954,-4.14985774 153.943164,0.84116041 C154.567641,0.990222 155.049536,1.4874989 155.179343,2.11679772 C160.089237,23.5447164 142.420584,69.659354 116.809047,95.1651296 C112.279296,99.7250904 107.361256,103.881397 102.110705,107.586909 C102.786251,115.428942 102.187314,123.270975 99.2622707,129.98724 C90.9781309,148.937076 69.1970069,154.454382 59.8612445,155.953082 C58.8236786,156.128316 57.7640097,155.806976 56.9980748,155.08484 C56.2321399,154.362703 55.8483843,153.323156 55.9611871,152.27604 L59.2971291,121.883806 C57.0177115,121.86112 54.7409118,121.72269 52.4755109,121.46905 C50.8939646,121.314195 49.4160533,120.611551 48.2968779,119.482402 L36.5235797,107.726323 C35.3939944,106.607169 34.6917222,105.127362 34.5387291,103.543906 C34.2843644,101.263708 34.1460587,98.9720348 34.124348,96.6777706 L3.72131138,100.034161 C2.67477237,100.148559 1.63523103,99.76492 0.91338526,98.9979063 C0.1915395,98.2308926 -0.12898998,97.169357 0.04759661,96.130571 C1.58324421,86.7689266 7.09555746,65.0064146 26.0282467,56.6659771 C32.7384347,53.7382849 40.6116756,53.1562318 48.4849164,53.8533014 C52.1868345,48.6107005 56.3382287,43.7010179 60.891974,39.1799869 Z M26.3928991,106.014141 C27.0489575,105.9247 27.6884935,106.265772 27.9798065,106.860458 C28.2711196,107.455143 28.1486472,108.169603 27.6759106,108.633277 C26.6213806,109.687963 24.9271024,114.177408 24.3541411,117.380137 C22.8531933,125.828169 30.2313884,133.04925 38.5867813,131.625425 C42.3057572,130.982066 45.3955302,130.229724 47.321805,128.299649 C48.3341538,127.241448 50.1233398,128.116837 49.9932811,129.586366 C49.4310997,134.266073 47.3100624,138.620228 43.9719146,141.947281 C35.7079143,150.219533 5,151 5,151 C5,151 5.78035222,120.305132 14.0443525,112.032881 C17.3736274,108.704598 21.7204869,106.585918 26.3928991,106.014141 L26.3928991,106.014141 Z M103.071791,36.1748338 C96.310397,36.1748338 90.2149792,40.2520735 87.6285294,46.5048689 C85.0420796,52.7576643 86.4741123,59.9542537 91.2567065,64.7380428 C94.3887075,67.8773657 98.6393029,69.6413964 103.071791,69.6413964 C107.504279,69.6413964 111.754875,67.8773657 114.886876,64.7380428 C119.66947,59.9542537 121.101502,52.7576643 118.515053,46.5048689 C115.928603,40.2520735 109.833185,36.1748338 103.071791,36.1748338 L103.071791,36.1748338 Z" id="Shape"></path>
        </g>
    </g>
</svg>
